X:1
T:Title
%%score { 1 | 2 }
L:1/8
M:4/4
K:F
V:1 treble nm="Grand Piano"
V:2 bass 
V:1
 z4 z2[Q:1/4=94] [CAc]>[CGB] | [CFA]>[A,CF] [CFA]>[B,EG] F2 F>G |[M:3/4] A>A [GB]>[FA] [EG]2 | %3
[M:1/4] [EG]>[FA] |[M:4/4] [GB]>[GB] [FA]>[EG] [GB]>A c>c | [Ec]6 [Fc]>[Fc] | %6
 [^Fd]>[Ac] [GB]>[FA] [GB]2 [Ge]>[Bd] | [CAc]>[CGB] [CFA]>[CEG] [CFA]2 [CGc]>[CGB] | %8
 [CFA]>[A,F] [DFB]>[CFA] [CFc]>[DFB] [CFA]>[B,EG] |[M:3/4] [A,F]6 |[M:1/4] [A,F]2 | %11
[M:4/4] [Fd]4 [DFB]2 [DFB]>[Fd] | c3 B A2 (3A[GB][Ac] | [GB]3 [FA] [EG]2 (3[GB][Ac][Bd] | %14
 [Ac]3 [GB] A4 | F2 F>F f2 ed | c4 A4 | [DG]2 (3[D-G][D^FA][DGB] [C=FA]3 [B,EG] |[M:3/4] [A,F]6 |] %19
V:2
 z4 z2 F,>F, | F,>F, C,>C, [F,A,]2 [F,A,C]>[F,B,C] |[M:3/4] [F,CF]>[F,CF] [E,C]>[F,C] [C,C]2 | %3
[M:1/4] [C,C]>[C,C] |[M:4/4] [C,C]>[C,C] [C,C]>[C,C] [F,C]>[F,CF] [F,A,F]>[F,A,F] | %5
 [C,G,]6 [F,A,]>[F,A,] | [D,A,]>[D,D] [D,D]>[D,D] [G,D]2 [C,C]>[C,C] | F,>F, F,>C, F,2 E,>E, | %8
 F,>F, F,>F, A,,>B,, C,>C, |[M:3/4] F,6 |[M:1/4] F,2 |[M:4/4] [B,,B,]4 B,,2 B,,>[B,,B,] | %12
 [F,A,F]3 [F,DF] [F,CF]2 (3[F,CF][F,C][F,C] | [C,C]3 [C,C] [C,C]2 (3[C,C][C,C][C,C] | %14
 [F,C]3 [F,C][K:treble] [F,CF]4 | [B,D]2 [B,D]>[B,D] [B,DF]2 [B,CF][B,F] | [F,A,F]4 [F,CF]4 | %17
 B,,2 (3B,,A,,G,, C,3 C, |[M:3/4] F,6 |] %19

